X:136
T: Shiliuhua
N: C1632
O: China, Zhejiang, Huangyan, Wenling
S: III, 644]
R: Xiaodiao, Shieryue huaming diao]
M: 2/4
L: 1/16
K: F
f2c2d2d2 | f2c2d4 | f4dfdc | d8 |
A2d2c2c2 | A2d2c4 | z2c4G2 | A8 |
A2G2A2c2 | F4G2A2 | c4z2F2- | F2G2F2C2 | D8 |
A2d2 | c4 | A2c2- | c2f2 | d4 | A2c2- | c2f2 | d4
A2c2 | f4 | d4 | A2c2 | f4 | d4 | c2G2 | A8

